images/pillar-card-icon1.svg

<svg class="w-6 h-6" width="24" height="24" viewBox="0 0 24 24" fill="none" xmlns="http://www.w3.org/2000/svg"><path d="M15.302 11.9056C15.8118 11.815 16.3002 12.1279 16.4387 12.6156L16.4611 12.7152L17.9768 21.2406L17.9777 21.2494L17.9924 21.3626C18.0166 21.6274 17.9702 21.8951 17.8566 22.1371C17.7269 22.4132 17.516 22.643 17.2522 22.7962C16.9879 22.9495 16.6826 23.019 16.3781 22.9945C16.0877 22.971 15.8112 22.8629 15.5813 22.6849V22.6859L12.0031 19.9994L8.41817 22.6849C8.18862 22.8621 7.91289 22.97 7.62325 22.9935C7.31914 23.0181 7.01422 22.9491 6.7502 22.7962C6.48645 22.6435 6.27576 22.4137 6.14571 22.138C6.01564 21.8621 5.97252 21.5523 6.02266 21.2513L6.02461 21.2416L7.53829 12.7152L7.56172 12.6156C7.70026 12.1281 8.18775 11.8152 8.69747 11.9056C9.24121 12.0022 9.6045 12.5211 9.50801 13.0648L8.21504 20.3382L10.8059 18.3988L10.8068 18.3978L10.9397 18.307C11.2574 18.1073 11.6257 18.0004 12.0031 18.0003C12.3807 18.0003 12.7497 18.1072 13.0676 18.307L13.2004 18.3978L13.2023 18.3988L15.7834 20.3363L14.4924 13.0648L14.4797 12.9632C14.442 12.4579 14.7923 11.9962 15.302 11.9056Z" fill="#C39900FF" style="fill-opacity:1;"/><path d="M17 8C17 5.23858 14.7614 3 12 3C9.23858 3 7 5.23858 7 8C7 10.7614 9.23858 13 12 13C14.7614 13 17 10.7614 17 8ZM19 8C19 11.866 15.866 15 12 15C8.13401 15 5 11.866 5 8C5 4.13401 8.13401 1 12 1C15.866 1 19 4.13401 19 8Z" fill="#C39900FF" style="fill-opacity:1;"/></svg>

<svg xmlns="http://www.w3.org/2000/svg" width="24" height="24" fill="none" class="w-6 h-6" viewBox="0 0 24 24"><path fill="#c39900ff" d="M15.302 11.906a1 1 0 0 1 1.137.71l.022.1 1.516 8.525v.008l.015.114a1.502 1.502 0 0 1-1.614 1.631 1.5 1.5 0 0 1-.797-.31v.002l-3.578-2.687-3.585 2.686a1.5 1.5 0 0 1-2.395-1.434l.002-.01 1.513-8.526.024-.1a1 1 0 0 1 1.946.45l-1.293 7.273 2.59-1.94h.002l.133-.091a2 2 0 0 1 2.128 0l.132.09.002.002 2.581 1.937-1.29-7.271-.013-.102a1 1 0 0 1 .822-1.057"/><path fill="#c39900ff" d="M17 8A5 5 0 1 0 7 8a5 5 0 0 0 10 0m2 0A7 7 0 1 1 5 8a7 7 0 0 1 14 0"/></svg>
